X:1
T:Title
%%score 1 2 3 4
L:1/8
M:4/2
K:C
V:1 treble nm="Part_1"
V:2 bass nm="Part_2"
V:3 treble nm="Part_3"
V:4 bass nm="Part_4"
V:1
 z4 A6 G/F/E/D/ E4 | z4 e6 d/c/B/A/ B4 | z2 B2 d4- dc/B/ c/A/B/G/ A3 A | B8 z2 A2 c4- | %4
 cB/A/ B/G/A/F/ G3 G A8 |[M:6/2] A4 A4 ^G4 A6 A2 =GFGE | F3 EDEFD E4 z12 | d4 d4 ^c4 d6 d2 =cBcA | %8
 _B3 AGABG A4 z12 | z12 c4 c4 B4 |[M:3/2] c6 B2 A4 |[M:4/2] A4 ^G4 A8 | z4 A2 A2 A6 F/E/D/E/ | %13
 F/G/A/B/ c/A/B/c/ d6 AA A4 | G8 z4 B2 B2 | B6 G/F/E/F/ G/A/B/c/ d/B/c/d/ e4- | e2 BB B4 A8 | z16 | %18
 z16 | A8 A4 z2 c2 | G/A/B A/B/c B/c/d c/d/e d8 | A8 z8 | z8 z4 E4 | %23
 E4 G4 D/E/D/E/ F/G/F/G/ A/B/A/B/ c/d/c/d/ | e8 B8 | z4 z2 B2 e>fd>e c>dB>c | %26
 A>BG>A FD d4 c/B/c/A/ B/A/B/G/ A/B/c/d/ | e2 c/B/c/A/ B3 B A8 | z4 E4 A>BG>A F>GE>F | %29
 DE/F/ G/A/B/c/ d8 ^c2 B2 | ^c4 c4 d8 |[M:6/2] z12 A8 B4 | c6 c2 A4 G6 G2 A4 | B8 c4 d8 c4 | %34
 A6 G2 A4 _B8 G4 |[M:4/2] A4 z2 A2 dc d/c/d/B/ c2 A2 | BA B/A/B/G/ A2 AA G3 G A4 | %37
 z2 G2 AG A/G/A/F/ G2 E2 FE F/E/F/D/ | E2 EE D3 D A6 A2 | %39
 B/A/G/A/ B/c/d/B/ c2 c2 dc/B/ A/G/F/D/ d2 c2 | B4 A/G/F/G/ A/B/c/A/ B4 B4 | c8 z8 | %42
 z4 B4 c2 c2 d/c/A/B/ c/B/c/d/ | e2 e2 E/F/G/A/ B/c/d/e/ c4 B4 | %44
 c/d/e/d/ B/c/A/B/ c2 B2 A4 G/F/E/F/ G/A/B/c/ | A/G/F/G/ A/G/F/E/ D2 d4 c2 B3 B | A8 z4 A4- | %47
 A2 A2 A2 A2 _B>AB>A B>AB/A/B/c/ | A4 A6 GF E4 | D8 z4 d4- | d2 d2 d2 d2 e8 | %51
 d4 d6 d2 c/B/A/B/ c/B/c/A/ | B/A/G/A/ B/c/d/c/ B4 A8 | z4 G6 G2 F/E/D/E/ F/E/F/D/ | %54
 EF/G/ A/B/c/d/ e4 d4 d4- | d2 d2 c4 B2 AG A/B/c/d/ B/c/d/e/ | ^c2 d4 c2 d8 | %57
 z8 D/E/F/G/ A/_B/c/A/ d4 | _B4 A4 G2 A2 B/A/B/c/ d/c/B/A/ | G/F/D/E/ F/D/E/F/ G8 ^F2 E2 | ^F16 |] %61
V:2
 D,8 A,,8 | A,8 E,4 E,4 | G,6 F,E, D,4 D,4 | G,4 z2 E,2 F,6 E,D, | C,6 C,2 F,,8 |[M:6/2] z24 | %6
 D,4 D,4 ^C,4 D,6 D,2 =C,4 | _B,,8 A,,4 z12 | G,4 G,4 ^F,4 G,6 G,2 =F,4 | E,8 D,4 A,4 A,4 ^G,4 | %10
[M:3/2] A,6 G,2 F,4 |[M:4/2] E,8 A,,8 | D,2 D,2 D,8- D,2 D,D, | D,16 | G,,8 E,2 E,2 E,4- | %15
 E,4 E,2 E,E, E,8- | E,8 A,,8 | z4 D,4 D,4 z2 F,2 | C,2 D,2 E,2 F,2 G,8 | D,8 z8 | z16 | %21
 z4 A,,4 A,,4 z2 C,2 | G,,>A,,B,,>C, D,>E,F,>G, A,8 | E,8 z8 | z8 z4 E,4 | %25
 G,>A,F,>G, E,>F,D,>E, C,6 C,2 | D,4 D,4 E,8- | E,4 E,4 A,,4 A,,4 | %28
 C,>D,B,,>C, A,,>B,,G,,>A,, F,,6 F,,2 | G,,4 G,,4 A,,8- | A,,4 A,,4 D,8 | %31
[M:6/2] D,8 E,4 F,6 F,2 D,4 | C,6 C,2 D,4 E,8 F,4 | G,8 A,4 G,6 G,2 C,4 | D,6 E,2 F,4 _B,,8 C,4 | %35
[M:4/2] F,8 z2 D,2 A,G,A,F, | G,2 E,2 F,E,F,D, E,2 E,E, D,3 D, | E,4 z2 A,,2 E,D,E,C, D,2 B,,2 | %38
 C,B,,C,A,, B,,2 B,,B,, A,,3 A,, D,4 | z8 z4 D,4 | E,4 F,4 G,6 F,2 | E,4 C,4 D,6 D,2 | E,8 z8 | %43
 z4 E,4 F,4 G,4 | A,6 G,2 F,4 E,4 | (D,8 (3:2:2E,8) E,4 | A,,8 z4 D,4- | D,2 D,2 ^C,2 D,2 G,,8 | %48
 D,2 D,4 C,B,, A,,8 | D,8 z4 G,4- | G,2 G,2 ^F,2 G,2 C,8 | G,8 z8 | z4 G,6 G,2 F,4 | E,8 D,8 | %54
 z4 C,6 C,2 B,,4 | A,,8 G,,8 | A,,8 D,8 | D,8 _B,,6 A,,2 | G,,4 ^F,,4 G,,8 | G,,16 | D,16 |] %61
V:3
 z4 A8 E4 | z4 e8 B4 | z2 B2 d6 cB A4 | B8 z2 A2 c4- | c2 BA G4 A8 |[M:6/2] A4 A4 ^G4 A6 A2 =G4 | %6
 F8 E4 z12 | d4 d4 ^c4 d6 d2 =c4 | _B8 A4 z12 | z12 c4 c4 B4 |[M:3/2] c6 B2 A4- | %11
[M:4/2] A4 ^G4 A8 | z4 A2 A2 A8- | A4 A2 A2 A8 | G8 z4 B2 B2 | B12 B2 B2 | B8 A8 | z16 | z16 | %19
 A8 A4 z2 c2 | G2 A2 B2 c2 d8 | A8 z8 | z8 z4 E4 | E4 G4 D2 F2 A2 c2 | e8 B8 | z4 B4 e2 d2 c2 B2 | %26
 A2 G2 FD d4 c2 B2 A2 | G2 A2 B3 B A8 | z4 E4 A2 G2 F2 E2 | D4 d8 ^c2 B2 | ^c4 c4 d8 | %31
[M:6/2] z12 A8 B4 | c6 c2 A4 G6 G2 A4 | B8 c4 d8 c4 | A6 G2 A4 _B8 G4 |[M:4/2] A4 A4 d2 B2 c2 A2 | %36
 B2 G2 A2 AA G3 G A4 | G4 A2 F2 G2 E2 F2 D2 | E2 EE D3 D A4 A4 | B4 c4 d6 c2 | B4 A4 B4 B4 | %41
 c8 z8 | z4 B4 c4 d4 | e6 d2 c4 B4 | c6 B2 A4 G4 | A4 d6 c2 B3 B | A8 z4 A4- | A2 A2 A2 A2 _B8 | %48
 A4 A6 GF E4 | D8 z4 d4- | d2 d2 d2 d2 e8 | d4 d6 d2 c4 | B8 A8 | z4 G6 G2 F4 | E8 D4 d4- | %55
 d2 d2 c4 B3 c d2 B2 | ^c2 d4 c2 d8 | z8 d8 | _B4 A4 G2 A2 B4- | B2 A2 G8 ^F2 E2 | ^F16 |] %61
V:4
 D,8 A,,8 | A,8 E,8 | G,8 D,8 | G,4 E,4 F,8 | C,8 F,,8 |[M:6/2] A,,4 D,4 B,,4 A,,6 A,,2 E,4 | %6
 D,4 D,4 ^C,4 D,6 D,2 =C,4 | _B,,8 A,,4 D,4 G,4 A,4 | G,4 G,4 ^F,4 G,6 G,2 =F,4 | %9
 E,8 D,4 A,4 A,4 ^G,4 |[M:3/2] A,6 G,2 F,4 |[M:4/2] E,8 A,,8 | D,2 D,2 D,8 D,4 | D,16 | %14
 G,,8 E,2 E,2 E,4- | E,4 E,4 E,8- | E,8 A,,8 | D,8 D,4 F,4 | C,2 D,2 E,2 F,2 G,8 | D,8 F,4 C,4 | %20
 E,4 G,4 G,,2 A,,2 B,,2 C,2 | D,4 A,,4 A,,4 C,4 | G,,4 D,4 A,8 | E,8 D,4 A,,4 | C,8 E,8 | %25
 G,2 F,2 E,2 D,2 C,8 | D,8 E,8- | E,8 A,,8 | C,2 B,,2 A,,2 G,,2 F,,8 | G,,8 A,,8- | A,,8 D,8 | %31
[M:6/2] D,8 E,4 F,6 F,2 D,4 | C,6 C,2 D,4 E,8 F,4 | G,8 A,4 G,8 C,4 | D,6 E,2 F,4 _B,,8 C,4 | %35
[M:4/2] F,8 D,4 A,2 F,2 | G,2 E,2 F,2 D,2 E,4 D,4 | E,4 A,,4 E,2 C,2 D,2 B,,2 | %38
 C,2 A,,2 B,,4 A,,4 D,4 | G,4 E,4 D,4 D,4 | E,4 F,4 G,6 F,2 | E,4 C,4 D,6 D,2 | E,8 A,4 F,4 | %43
 E,8 F,4 G,4 | A,6 G,2 F,4 E,4 | D,8 E,8 | A,,8 z4 D,4- | D,2 D,2 ^C,2 D,2 G,,8 | %48
 D,2 D,4 C,B,, A,,8 | D,8 G,8 | G,4 ^F,2 G,2 C,8 | G,8 A,8 | G,8 D,8 | E,8 D,8 | C,8 G,,8 | %55
 A,,8 G,,8 | A,,8 D,8 | D,8 _B,,6 A,,2 | G,,4 ^F,,4 G,,8 | G,,16 | D,16 |] %61

